X: 14
T: A une dame
N: Derived from Bus3006-A_une_dame.krn
C: Antoine Busnoys
%%abc-version 2.0
%%abcx-abcm2ps-target-version 5.9.1 (29 Sep 2008)
%%abc-creator hum2abc beta
%%abcx-conversion-date 2019/02/16 20:26:06
%%abc-edited-by Jesse Rodin
%%abc-edited-by Chris Gage 02-10-2015
%%abcx-initial-encoding-date 2015/05/01/
%%humdrum-veritas 3814242826
%%humdrum-veritas-data 947029549
%%linebreak <none>
%%barnumbers 0
L: 1/4
M: 4/2
Q: 1/2=120
V: 1 clef=treble
V: 2 clef=treble-8
V: 3 clef=treble-8
K: C
[V:1] z8 | 
[V:2] A8 | 
[V:3] A6GF | 
[V:1] z8 | 
[V:2] B4c4 | 
[V:3] E4E4 | 
[V:1] A8 | 
[V:2] d4f4 | 
[V:3] D4D4 | 
[V:1] B4c4 | 
[V:2] e4e4 | 
[V:3] G4A4 | 
[V:1] d4f4 | 
[V:2] d6B2 | 
[V:3] D4z2D2 | 
[V:1] e2e4dc | 
[V:2] c3de2f2 | 
[V:3] A3Bc2d2 | 
[V:1] B2A4e2- | 
[V:2] g2a4g2 | 
[V:3] e2f3de2 | 
[V:1] edd4^c2 | 
[V:2] a2f2e4 | 
[V:3] c2d2A4 | 
[V:1] d4z4 | 
[V:2] d8 | 
[V:3] z2_B3AG2 | 
[V:1] f6e2 | 
[V:2] z8 | 
[V:3] F3ED2C2 | 
[V:1] d4c4 | 
[V:2] f6e2 | 
[V:3] D2F3GA2 | 
[V:1] d2f3eg2- | 
[V:2] d4c4 | 
[V:3] F2D2E4 | 
[V:1] gfedc2e2- | 
[V:2] d2f3eg2- | 
[V:3] D4z4 | 
[V:1] edf2e4 | 
[V:2] gfedc2Bc | 
[V:3] z8 | 
[V:1] A3Bc2d2- | 
[V:2] d2f2e2d2- | 
[V:3] D4A2B2 | 
[V:1] dcA3_BAG/F/ | 
[V:2] d2c2d2B2 | 
[V:3] G2A2F2G2 | 
[V:1] E4z4 | 
[V:2] c3de4 | 
[V:3] A3Bc3d | 
[V:1] c6d2 | 
[V:2] A4z4 | 
[V:3] e4A4 | 
[V:1] e4f4 | 
[V:2] c4d4 | 
[V:3] z4_B4 | 
[V:1] e2e4d2 | 
[V:2] e2g2f4 | 
[V:3] c4d4 | 
[V:1] e4c2d2- | 
[V:2] e6d2 | 
[V:3] A6D2- | 
[V:1] dcBAc2B2- | 
[V:2] f4e2d2- | 
[V:3] D4A2B2 | 
[V:1] BAA4^G2 | 
[V:2] d2c2B4 | 
[V:3] G2A2E4 | 
[V:1] A8- | 
[V:2] A4z2c2- | 
[V:3] z2F3GA2- | 
[V:1] A8 | 
[V:2] c2d2f4 | 
[V:3] AGFED4 | 
[V:1] z2c4d2 | 
[V:2] e2e4d2 | 
[V:3] C4z4 | 
[V:1] f4e4- | 
[V:2] d4z4 | 
[V:3] D4A3B | 
[V:1] e2d2d3c | 
[V:2] g4f3e | 
[V:3] c2Bcd4- | 
[V:1] A2B2c2d2 | 
[V:2] f2g2e2d2- | 
[V:3] d2G2A2_B2- | 
[V:1] f4e4 | 
[V:2] d2a4g2 | 
[V:3] BAFGA2E2 | 
[V:1] d2cde2f2- | 
[V:2] f2edc2d2- | 
[V:3] F2G2E2D2 | 
[V:1] fed3^ccB | 
[V:2] d2f2e4 | 
[V:3] F3GA4 | 
[V:1] d8 ]|:  
[V:2] d8 ]|:  
[V:3] D8 ]|:  
[V:1]  [K:C] [K:clef=treble][M:4/2]A4B2d2- | 
[V:2]  [K:C] [K:clef=treble-8][M:4/2]f4d4 | 
[V:3]  [K:C] [K:clef=treble-8][M:4/2]d4G2B2 | 
[V:1] d2c2d2f2- | 
[V:2] e4d4 | 
[V:3] A4D3E | 
[V:1] f2e2f3e | 
[V:2] z2c2d2f2 | 
[V:3] FGA2F2D2 | 
[V:1] c2def2e2- | 
[V:2] e2a3fg2- | 
[V:3] A4d2c2- | 
[V:1] edd4^c2 | 
[V:2] gfede4 | 
[V:3] cdB2A4 | 
[V:1] d8 | 
[V:2] d8- | 
[V:3] z2_B3AF2 | 
[V:1] z4d4 | 
[V:2] d4z4 | 
[V:3] G2FED2G2- | 
[V:1] e2f4ed | 
[V:2] z4d4 | 
[V:3] G2F2D4 | 
[V:1] c3BA2GF | 
[V:2] e2f4ed | 
[V:3] A4F2G2 | 
[V:1] E4D2F2 | 
[V:2] c3Bd3c | 
[V:3] A4_B3A | 
[V:1] G2A4F2 |[1 
[V:2] B2A2d4 | 
[V:3] G2F4D2 | 
[V:1] E8 :|][2 
[V:2] c8 :|]  
[V:3] A8 :|]  
[V:1] E3FG2A2 | 
[V:2] c3de2f2 | 
[V:3] A3GE2D2 | 
[V:1] B2c2d2e2 | 
[V:2] g2fed2c2 | 
[V:3] z2A2FGE2 | 
[V:1] f2ed^c3B | 
[V:2] d2f2e4 | 
[V:3] D4A4 | 
[V:1] d8 |]  
[V:2] d8 |]  
[V:3] D8 |]  



